assets/svg/videos.svg

<svg fill="none" height="17" viewBox="0 0 17 17" width="17" xmlns="http://www.w3.org/2000/svg"><path d="m11.1191 8.89756.3703.59404.0006-.00037zm-3.76 2.34374.37.5942.00029-.0001zm3.76-3.13886.371-.59361-.0007-.00043zm-3.76-2.34375-.37054.59389.00025.00015zm-.47699-.01236.33875.61258.00147-.00082zm0 5.50737.33939-.6123-.00064-.0003zm1.63789-10.9537c-4.53796 0-8.22 3.6695-8.22 8.2h1.4c0-3.75378 3.05171-6.8 6.82-6.8zm8.22 8.2c0-4.5305-3.682-8.2-8.22-8.2v1.4c3.7683 0 6.82 3.04622 6.82 6.8zm-8.22 8.2c4.538 0 8.22-3.6695 8.22-8.2h-1.4c0 3.7538-3.0517 6.8-6.82 6.8zm-8.22-8.2c0 4.5305 3.68204 8.2 8.22 8.2v-1.4c-3.76829 0-6.82-3.0462-6.82-6.8zm10.4488-.19648-3.75999 2.34378.74058 1.1881 3.76001-2.3438zm-.1088.19648c0-.08101.0418-.15465.1082-.19611l.7418 1.18734c.3411-.21309.55-.58708.55-.99123zm.1081.19606c-.0662-.0414-.1081-.11499-.1081-.19606h1.4c0-.40422-.209-.7781-.5499-.99117zm-3.75929-2.34333 3.75999 2.34375.7406-1.18808-3.76001-2.34375zm.23352.00536c-.0743.04132-.16377.03816-.23377-.00551l.74108-1.18778c-.35981-.22449-.81465-.23773-1.18775-.03023zm.11767-.20184c0 .08506-.0464.16243-.11914.20265l-.6775-1.22515c-.37154.20546-.60336.59642-.60336 1.0225zm0 4.68755v-4.68755h-1.4v4.68755zm-.11914-.2027c.07274.0402.11914.1176.11914.2027h-1.4c0 .426.23182.817.60336 1.0224zm-.11086-.0286c.03752 0 .07621.0094.1115.029l-.67878 1.2244c.17735.0983.37301.1466.56728.1466zm-.1209.0346c.03706-.0231.07913-.0346.1209-.0346v1.4c.21479 0 .42987-.0591.6191-.177z" fill="#102b44"/></svg>

<svg width="17" height="17" viewBox="0 0 17 17" fill="none" xmlns="http://www.w3.org/2000/svg">
<path d="M11.1191 8.89756L11.4894 9.4916L11.49 9.49123L11.1191 8.89756ZM7.3591 11.2413L7.7291 11.8355L7.72939 11.8354L7.3591 11.2413ZM11.1191 8.10244L11.4901 7.50883L11.4894 7.5084L11.1191 8.10244ZM7.3591 5.75869L6.98856 6.35258L6.98881 6.35273L7.3591 5.75869ZM6.88211 5.74633L7.22086 6.35891L7.22233 6.35809L6.88211 5.74633ZM6.88211 11.2537L7.2215 10.6414L7.22086 10.6411L6.88211 11.2537ZM8.52 0.3C3.98204 0.3 0.3 3.9695 0.3 8.5H1.7C1.7 4.74622 4.75171 1.7 8.52 1.7V0.3ZM16.74 8.5C16.74 3.9695 13.058 0.3 8.52 0.3V1.7C12.2883 1.7 15.34 4.74622 15.34 8.5H16.74ZM8.52 16.7C13.058 16.7 16.74 13.0305 16.74 8.5H15.34C15.34 12.2538 12.2883 15.3 8.52 15.3V16.7ZM0.3 8.5C0.3 13.0305 3.98204 16.7 8.52 16.7V15.3C4.75171 15.3 1.7 12.2538 1.7 8.5H0.3ZM10.7488 8.30352L6.98881 10.6473L7.72939 11.8354L11.4894 9.4916L10.7488 8.30352ZM10.64 8.5C10.64 8.41899 10.6818 8.34535 10.7482 8.30389L11.49 9.49123C11.8311 9.27814 12.04 8.90415 12.04 8.5H10.64ZM10.7481 8.69606C10.6819 8.65466 10.64 8.58107 10.64 8.5H12.04C12.04 8.09578 11.831 7.7219 11.4901 7.50883L10.7481 8.69606ZM6.98881 6.35273L10.7488 8.69648L11.4894 7.5084L7.72939 5.16465L6.98881 6.35273ZM7.22233 6.35809C7.14803 6.39941 7.05856 6.39625 6.98856 6.35258L7.72964 5.1648C7.36983 4.94031 6.91499 4.92707 6.54189 5.13457L7.22233 6.35809ZM7.34 6.15625C7.34 6.24131 7.2936 6.31868 7.22086 6.3589L6.54336 5.13375C6.17182 5.33921 5.94 5.73017 5.94 6.15625H7.34ZM7.34 10.8438V6.15625H5.94V10.8438H7.34ZM7.22086 10.6411C7.2936 10.6813 7.34 10.7587 7.34 10.8438H5.94C5.94 11.2698 6.17182 11.6608 6.54336 11.8662L7.22086 10.6411ZM7.11 10.6125C7.14752 10.6125 7.18621 10.6219 7.2215 10.6415L6.54272 11.8659C6.72007 11.9642 6.91573 12.0125 7.11 12.0125V10.6125ZM6.9891 10.6471C7.02616 10.624 7.06823 10.6125 7.11 10.6125V12.0125C7.32479 12.0125 7.53987 11.9534 7.7291 11.8355L6.9891 10.6471Z" fill="#102B44"/>
</svg>
